X:52
T:Pollonesse 1832-52
O:Södermanland
R:Slängpolska
B:Notbok 1832 från Sörmlands museum
N:[[http://www.sormlandsmusikarkiv.se/noter/1832/1832.html]]
Z:Jonas Brunskog
M: 3/4
L: 1/16
K: G
|:c2AB G2AB c2AB | G2B2 d2Bd g4 | d2B2 G2AB c2AB | G2AF D8 |
c2AB G2AB c2AB | G2B2 d2Bd g4 | d2B2 G2AB c2AB | G2AF G8:|
|:g2f2 e2de f2a2 | g2f2 e2de [E4B4] | g2f2 e2de f2a2 | g2f2 e4 b4 |
g2f2 e2de f2a2 | g2f2 e2de [E4B4] | B2dc A2cB G2B2 | A2FA G4 G,4:|

